X: 32
T:Roman Reel
% Nottingham Music Database
S:Mick Peat
M:2/4
L:1/4
K:A
"A"e3/4A/4 a3/4e/4|"D"f3/4e/4 d3/4c/4|"E"B3/4c/4 d3/4e/4|"A"c3/4B/4 A3/4e/4|\
"A"e3/4A/4 a3/4e/4|"D"f3/4e/4 d3/4c/4|"E"B3/4d/4 c3/4B/4|"A"A3/2e/2:|
e/2|"E"B3/4d/4 "A"c3/4e/4|"Bm"d3/4c/4 "E"B3/4c/4|"A"c3/4e/4 "D"d3/4f/4|\
"A"e3/4d/4 "E"c3/4e/4|"A"e3/4c/4 a3/4e/4|"D"f3/4e/4 d3/4c/4|"E"B3/4d/4 c3/4B/4|"A"A3/2:|


